icons/svg/text-large.svg

<svg width="24" height="24" viewBox="0 0 24 24" fill="none" xmlns="http://www.w3.org/2000/svg">
<path d="M5.5 19.207L7.82143 13.8817M7.82143 13.8817H16.1786M7.82143 13.8817L11.3785 5.72183C11.6236 5.15946 12.3764 5.15946 12.6215 5.72183L16.1786 13.8817M16.1786 13.8817L18.5 19.207" stroke="currentColor" stroke-width="1.5" stroke-linecap="round" stroke-linejoin="round"/>
</svg>

<svg xmlns="http://www.w3.org/2000/svg" width="24" height="24" fill="none" viewBox="0 0 24 24"><path stroke="currentColor" stroke-linecap="round" stroke-linejoin="round" stroke-width="1.5" d="m5.5 19.207 2.321-5.325m0 0h8.358m-8.358 0 3.558-8.16a.669.669 0 0 1 1.242 0l3.558 8.16m0 0 2.321 5.325"/></svg>
